icons/action/icon_pin-unpin_m_black.svg

<?xml version="1.0" encoding="UTF-8"?>
<svg width="24px" height="24px" viewBox="0 0 24 24" version="1.1" xmlns="http://www.w3.org/2000/svg" xmlns:xlink="http://www.w3.org/1999/xlink">
    <!-- Generator: Sketch 47.1 (45422) - http://www.bohemiancoding.com/sketch -->
    <title>icon_pin-unpin_m_white</title>
    <desc>Created with Sketch.</desc>
    <defs></defs>
    <g id="October-2017" stroke="none" stroke-width="1" fill="none" fill-rule="evenodd">
        <g id="icon_pin-unpin_m_white">
            <g>
                <rect id="_ph_" x="0" y="0" width="24" height="24"></rect>
                <polygon id="Fill-2" fill="#0B1F35" points="0.150399976 23.1502 0.856399976 23.8562 9.08939998 15.6242 8.38239998 14.9182"></polygon>
                <polygon id="Fill-8" fill="#0B1F35" opacity="0.300000012" points="15.0036 5.66519998 14.3426 5.00319998 11.1726 8.17219998 11.8346 8.83419998"></polygon>
                <path d="M14.5368,20.2985 L3.70879998,9.46949998 C4.33179998,9.00949998 5.09279998,8.79649998 5.84779998,8.84749998 L4.93779998,7.93749998 C4.09679998,8.07849998 3.29679998,8.47049998 2.66379998,9.10449998 L2.32379998,9.44449998 L14.5618,21.6835 L14.9028,21.3435 C15.5358,20.7095 15.9298,19.9095 16.0688,19.0695 L15.1588,18.1585 C15.2108,18.9145 14.9978,19.6755 14.5368,20.2985" id="Fill-4" fill="#0B1F35"></path>
                <path d="M22.862,11.2277 L23.683,10.4057 L13.601,0.323699976 L12.779,1.14469998 C11.912,2.01369998 11.808,3.35569998 12.47,4.33669998 L9.90399998,6.90369998 L10.584,7.58369998 L13.798,4.37069998 L13.458,4.03069998 C12.85,3.42069998 12.851,2.43469998 13.46,1.82569998 L13.601,1.68369998 L22.324,10.4057 L22.182,10.5477 C21.573,11.1567 20.587,11.1567 19.977,10.5487 L19.636,10.2097 L16.424,13.4237 L17.103,14.1037 L19.67,11.5367 C20.651,12.1987 21.994,12.0957 22.862,11.2277" id="Fill-6" fill="#0B1F35"></path>
                <polygon id="Fill-3" fill="#0B1F35" points="0.150399976 0.857199976 23.1494 23.8562 23.8574 23.1502 0.856399976 0.150199976"></polygon>
            </g>
        </g>
    </g>
</svg>

<svg width="24" height="24" viewBox="0 0 24 24" xmlns="http://www.w3.org/2000/svg">
  <g fill="none" fill-rule="evenodd">
    <path d="M0 0h24v24H0z"/>
    <path fill="#0B1F35" d="M.15 23.15l.706.706 8.233-8.232-.708-.706"/>
    <path fill="#0B1F35" opacity=".3" d="M15.004 5.665l-.66-.662-3.17 3.17.66.66"/>
    <path d="M14.537 20.299L3.71 9.469c.622-.46 1.383-.674 2.138-.623l-.91-.91c-.84.14-1.64.533-2.274 1.167l-.34.34 12.238 12.24.34-.34c.634-.635 1.028-1.434 1.167-2.274l-.91-.912c.05.756-.162 1.517-.623 2.14M22.862 11.228l.82-.822L13.603.324l-.823.82c-.868.87-.972 2.212-.31 3.193L9.904 6.904l.68.68 3.214-3.213-.34-.34c-.608-.61-.607-1.595.002-2.204l.14-.142 8.724 8.722-.142.142c-.61.61-1.595.61-2.205 0l-.34-.338-3.213 3.214.68.68 2.566-2.567c.98.662 2.324.56 3.192-.31M.15.857l23 23 .707-.707-23-23" fill="#0B1F35"/>
  </g>
</svg>
